icons-rebrand/svg/video-layout-equal-dual-bold.svg

<svg width="32" height="32" viewBox="0 0 32 32" xmlns="http://www.w3.org/2000/svg">
<path fill-rule="evenodd" clip-rule="evenodd" d="M7 5C4.23858 5 2 7.23858 2 10V22C2 24.7614 4.23858 27 7 27H25C27.7614 27 30 24.7614 30 22V10C30 7.23858 27.7614 5 25 5H7ZM4 10C4 8.34315 5.34315 7 7 7H15V25H7C5.34315 25 4 23.6569 4 22V10ZM17 25H25C26.6569 25 28 23.6569 28 22V10C28 8.34315 26.6569 7 25 7H17V25Z"/>
</svg>

<svg data-name="Layer 1" xmlns="http://www.w3.org/2000/svg" viewBox="0 0 32 32"><path d="M25 5H7a5 5 0 0 0-5 5v12a5 5 0 0 0 5 5h18a5 5 0 0 0 5-5V10a5 5 0 0 0-5-5ZM15 25H7a3 3 0 0 1-3-3V10a3 3 0 0 1 3-3h8Zm13-3a3 3 0 0 1-3 3h-8V7h8a3 3 0 0 1 3 3Z" fill="#0f0f0f" fill-rule="evenodd"/></svg>
